24x24/apps/gtkterm.svg

<svg xmlns="http://www.w3.org/2000/svg" width="24" height="24" version="1">
 <rect style="opacity:0.2" width="20" height="11" x="2" y="6.5" rx="1.25" ry=".982"/>
 <rect style="fill:#8e8e8e" width="20" height="11" x="2" y="6" rx="1.25" ry=".982"/>
 <path style="opacity:0.2" d="m 6.0086875,8.5000003 11.9826255,0 c 0.553197,0 1.089497,0.3968457 0.998551,0.875 L 17.991313,14.625 c -0.09095,0.478154 -0.445354,0.875 -0.998552,0.875 l -9.9855214,0 c -0.553198,0 -0.907607,-0.396846 -0.9985521,-0.875 L 5.0101355,9.3750003 c -0.090945,-0.4781543 0.445354,-0.875 0.998552,-0.875 z"/>
 <rect style="opacity:0.2" width="4" height="4" x="1" y="10.5" rx=".909" ry=".858"/>
 <rect style="fill:#b3b3b3" width="4" height="4" x="1" y="10" rx=".909" ry=".858"/>
 <rect style="opacity:0.2" width="4" height="4" x="19" y="10.5" rx=".909" ry=".858"/>
 <rect style="fill:#b3b3b3" width="4" height="4" x="19" y="10" rx=".909" ry=".858"/>
 <circle style="opacity:0.5" cx="3" cy="12" r="1"/>
 <circle style="opacity:0.5" cx="21" cy="12" r="1"/>
 <path style="opacity:0.1;fill:#f4f4f7" d="M 1.9091797,10 C 1.4055166,10 1,10.383067 1,10.858399 l 0,0.5 C 1,10.883067 1.4055166,10.5 1.9091797,10.5 l 2.1816406,0 C 4.5944833,10.5 5,10.883067 5,11.358399 l 0,-0.5 C 5,10.383067 4.5944833,10 4.0908203,10 l -2.1816406,0 z"/>
 <path style="opacity:0.1;fill:#f4f4f7" d="M 19.909179,10 C 19.405516,10 19,10.383067 19,10.858399 l 0,0.5 C 19,10.883067 19.405516,10.5 19.909179,10.5 l 2.181641,0 C 22.594483,10.5 23,10.883067 23,11.358399 l 0,-0.5 C 23,10.383067 22.594483,10 22.09082,10 l -2.181641,0 z"/>
 <path style="fill:#2bd677" d="M 6.0086875,8 17.991313,8 c 0.553197,0 1.089497,0.3968457 0.998551,0.875 l -0.998551,5.25 C 17.900367,14.603154 17.545959,15 16.992761,15 L 7.0072396,15 C 6.4540416,15 6.0996326,14.603154 6.0086875,14.125 L 5.0101355,8.875 C 4.9191903,8.3968457 5.4554895,8 6.0086875,8 Z"/>
 <path style="opacity:0.2" d="m 7,10.5 0,1 1,0 0,-1 -1,0 z m 3,0 0,1 1,0 0,-1 -1,0 z m 3,0 0,1 1,0 0,-1 -1,0 z m 3,0 0,1 1,0 0,-1 -1,0 z m -8,2 0,1 1,0 0,-1 -1,0 z m 3,0 0,1 1,0 0,-1 -1,0 z m 3,0 0,1 1,0 0,-1 -1,0 z"/>
 <path style="fill:#f4f4f7" d="m 7,10 0,1 1,0 0,-1 -1,0 z m 3,0 0,1 1,0 0,-1 -1,0 z m 3,0 0,1 1,0 0,-1 -1,0 z m 3,0 0,1 1,0 0,-1 -1,0 z m -8,2 0,1 1,0 0,-1 -1,0 z m 3,0 0,1 1,0 0,-1 -1,0 z m 3,0 0,1 1,0 0,-1 -1,0 z"/>
 <path style="fill:#f4f4f7;opacity:0.1" d="M 3.25 6 C 2.5575 6 2 6.4383148 2 6.9824219 L 2 7.4824219 C 2 6.9383148 2.5575 6.5 3.25 6.5 L 20.75 6.5 C 21.4425 6.5 22 6.9383148 22 7.4824219 L 22 6.9824219 C 22 6.4383148 21.4425 6 20.75 6 L 3.25 6 z"/>
 <path style="opacity:0.1;fill:#f4f4f7" d="M 6.0078125 8 C 5.4546145 8 4.9188204 8.3968457 5.0097656 8.875 L 5.0449219 9.0585938 C 5.1742345 8.7343842 5.5837898 8.5 6.0078125 8.5 L 17.992188 8.5 C 18.416209 8.5 18.825766 8.7343842 18.955078 9.0585938 L 18.990234 8.875 C 19.08118 8.3968457 18.545385 8 17.992188 8 L 6.0078125 8 z"/>
</svg>

<svg xmlns="http://www.w3.org/2000/svg" width="24" height="24" version="1"><rect style="opacity:.2" width="20" height="11" x="2" y="6.5" rx="1.25" ry=".982"/><rect style="fill:#8e8e8e" width="20" height="11" x="2" y="6" rx="1.25" ry=".982"/><path style="opacity:.2" d="M6.009 8.5H17.99c.554 0 1.09.397.999.875l-.999 5.25c-.09.478-.445.875-.998.875H7.007c-.553 0-.907-.397-.998-.875l-.999-5.25c-.09-.478.445-.875.999-.875z"/><rect style="opacity:.2" width="4" height="4" x="1" y="10.5" rx=".909" ry=".858"/><rect style="fill:#b3b3b3" width="4" height="4" x="1" y="10" rx=".909" ry=".858"/><rect style="opacity:.2" width="4" height="4" x="19" y="10.5" rx=".909" ry=".858"/><rect style="fill:#b3b3b3" width="4" height="4" x="19" y="10" rx=".909" ry=".858"/><circle style="opacity:.5" cx="3" cy="12" r="1"/><circle style="opacity:.5" cx="21" cy="12" r="1"/><path style="opacity:.1;fill:#f4f4f7" d="M1.91 10c-.504 0-.91.383-.91.858v.5c0-.475.406-.858.91-.858h2.18c.504 0 .91.383.91.858v-.5c0-.475-.406-.858-.91-.858H1.91zM19.91 10c-.504 0-.91.383-.91.858v.5c0-.475.406-.858.91-.858h2.18c.504 0 .91.383.91.858v-.5c0-.475-.406-.858-.91-.858h-2.18z"/><path style="fill:#2bd677" d="M6.009 8H17.99c.554 0 1.09.397.999.875l-.999 5.25c-.09.478-.445.875-.998.875H7.007c-.553 0-.907-.397-.998-.875l-.999-5.25C4.92 8.397 5.455 8 6.01 8z"/><path style="opacity:.2" d="M7 10.5v1h1v-1H7zm3 0v1h1v-1h-1zm3 0v1h1v-1h-1zm3 0v1h1v-1h-1zm-8 2v1h1v-1H8zm3 0v1h1v-1h-1zm3 0v1h1v-1h-1z"/><path style="fill:#f4f4f7" d="M7 10v1h1v-1H7zm3 0v1h1v-1h-1zm3 0v1h1v-1h-1zm3 0v1h1v-1h-1zm-8 2v1h1v-1H8zm3 0v1h1v-1h-1zm3 0v1h1v-1h-1z"/><path style="fill:#f4f4f7;opacity:.1" d="M3.25 6C2.558 6 2 6.438 2 6.982v.5c0-.544.558-.982 1.25-.982h17.5c.692 0 1.25.438 1.25.982v-.5C22 6.438 21.442 6 20.75 6H3.25z"/><path style="opacity:.1;fill:#f4f4f7" d="M6.008 8c-.553 0-1.09.397-.998.875l.035.184c.13-.325.539-.559.963-.559h11.984c.424 0 .834.234.963.559l.035-.184c.091-.478-.445-.875-.998-.875H6.008z"/></svg>
